crown-circle.svg

<svg fill="currentColor" viewBox="0 0 24 24"><path d="M12 2C6.47 2 2 6.5 2 12s4.5 10 10 10 10-4.5 10-10S17.5 2 12 2m4 13.44c0 .34-.22.56-.56.56H8.56c-.34 0-.56-.22-.56-.56V15h8zM16 14H8L7 8l3 2 2-3 2 3 3-2z"/></svg>

<svg  viewBox="0 0 24 24" fill="currentColor"><path  d="M12 2C6.47 2 2 6.5 2 12C2 17.5 6.5 22 12 22S22 17.5 22 12 17.5 2 12 2M16 15.44C16 15.78 15.78 16 15.44 16H8.56C8.22 16 8 15.78 8 15.44V15H16V15.44M16 14H8L7 8L10 10L12 7L14 10L17 8L16 14Z"/></svg>
